X:10012
T:Lady Montgomerie
R:Reel
B:RSCDS 10-1(b)
Z: 1997 by John Chambers <jc@trillian.mit.edu>
M:4/4
L:1/8
%--------------------
K:Bb
F2 |: \
"Bb" B2BF DEFD | "Gm" B2BG "F7" ABcd  | "Bb" B2BF DEFD | "Cm"  Cc cB "F7" ABcd  |
"Bb" B2BF DEFD | "Gm" BdBG "F7" ABcd  | "Bb" BfdB FDFD | "Cm"  Cc cB "F7" ABcd  |
"Bb" B2fB dBf2 | "Bb" B2fB      defb  | "Bb" B2fB dBf2 | "Cm"  edcB  "F7" ABcd  |
"Bb" B2fB dBf2 | "Bb" Bbfe      defg  | "Bb" fdec "Gm" dBcA |1 "Eb" BGFD "F7" Cccd :|2 "Eb"BG"F7"FD "Bb" B,4 |]
